X:1
T:Title
%%score { ( 1 3 ) | ( 2 4 ) }
L:1/8
M:6/8
K:G
V:1 treble nm="Grand Piano"
V:3 treble 
V:2 bass 
V:4 bass 
V:1
 z3 z2[Q:1/4=95] [G,B,D] | [B,DG][B,DG][B,DG] [B,DG][A,DF][G,CE] | [G,B,D]3 [B,DG]2 [B,DG] | %3
 [DGB][DGB][DGB] [DGB][DFA][DG] |[M:5/8] F3- [Fd]2 |[M:1/8] [DAc] | %6
[M:3/4] [DGB][DGB] [DGB][B,=FG] [CFA][DFB] | [CEc]3 [G,CE]2 [CEA] | %8
 [B,DG][A,DF] [B,DG][CFA] [DGB][CFA] | [B,G]6 | [FA][FA] [FA] .[FA]3 | BB B .B3 | %12
 AA A[EG^c] [EGc][EGc] |[M:5/8] [Fd]-[Fd]- [Fd]3 |[M:1/8] [DAc] | %15
[M:3/4] [DGB][DGB] [DGB][B,=FG] [CFA][DFB] | [CEc]3 [G,CE]2 [CEA] | %17
 [B,DG][A,DF] [B,DG][CFA] [DGB][CFA] |[M:7/4] [G,B,G]6 z2 z2 z4 |] %19
V:2
 z3 z2 G,, | G,,G,,G,, G,,G,,G,, | G,,3 G,,2 G,, | G,,G,,G,, G,,A,,B,, |[M:5/8] z z2 A,2 | %5
[M:1/8] D, |[M:3/4] G,G, G,G, G,G, | C,3 C,2 C, | D,D, D,D, D,D, | [G,,G,]6 | %10
 [D,D][D,D] [D,D] .[D,D]3 | [G,DG][G,DG] [G,DG] .[G,DG]3 | [A,DF][A,DF] [A,DF][K:bass]A,, A,,A,, | %13
[M:5/8] D,2 D, D,2 |[M:1/8] D, |[M:3/4] G,G, G,G, G,G, | C,3 C,2 C, | D,D, D,D, D,D, | %18
[M:7/4] G,,6 z2 z2 z4 |] %19
V:3
 x6 | x6 | x6 | x6 |[M:5/8] [DA]3 z2 |[M:1/8] x |[M:3/4] x6 | x6 | x6 | x6 | x6 | x6 | x6 | %13
[M:5/8] D2 D D2 |[M:1/8] x |[M:3/4] x6 | x6 | x6 |[M:7/4] x14 |] %19
V:4
 x6 | x6 | x6 | x6 |[M:5/8] D,-D,- D,3 |[M:1/8] x |[M:3/4] x6 | x6 | x6 | x6 | x6 | x6 | %12
 x3[K:bass] x3 |[M:5/8] x5 |[M:1/8] x |[M:3/4] x6 | x6 | x6 |[M:7/4] x14 |] %19

